X: 4193
T: QUICK STEP
R: Jig, quickstep
%R: jig, quick-step
B: James Kerr "Merry Melodies" v.4 p.22 #193
Z: 2016 John Chambers <jc:trillian.mit.edu>
N: Initial pickup changed to 16th-notes to match the other strain endings.
N: Fiddle fingerings not transcribed.
M: 6/8
L: 1/8
K: G
(uG/A/) |\
B3 cBc | dBG GBd | ece gfg | dec BcA |\
B3 cBc | dBG GBd | ec'b agf | g3- g2 :|
|: (f/g/) |\
a2f dfa | b2g dgb | c'2a b2g | faf def |\
a2f dfa | b2g dgb | aba gfe | d3- d2 :|

%%sep 1 1 500
%%sep 1 1 500

